X:1
T:Quae est ista
T:Quae est ista
T:Anonymous
T:Source : Trium vocum cantiones---Nürnberg---J.Petreius---1541. Editor : André Vierendeels (14/10/16).
T:Notes : Original clefs : C1, C 3, C4 Original note values have been halved Square brackets indicate ligatures
T:©
T:©
T:©
T:©
T:©
T:©
T:©
C:Anonymous
Z:©
%%score [ 1 2 3 ]
L:1/8
Q:1/4=120
M:2/2
K:C
V:1 treble nm="Soprano" snm="S"
V:2 treble-8 nm="Tenor 1" snm="T 1"
V:3 treble-8 nm="Tenor 2" snm="T 2"
V:1
 z8 | G8- | G8- | G8 | G8- | G8 | c8- | c8 | B3 c d2 e2- | e2 dc d2 B2 | c4 B2 A2- | A2 GF G2 CD | %12
w: |Quae|_||est|_|i-||sta, _ _ _|_ _ _ _ _||* * * * quae _|
 EFGA B2 c2- | c2 BA G2 c2 | B3 c/d/ e2 d2 | B3 c/d/ e2 d2- | dc c4 B2 | c4 z4 | c6 B2 | %19
w: _ _ _ _ _ _|* * * * est|i- * * * sta,|_ _ _ _ _|||quae pro-|
 A2 GF A2 G2- | GFED C2 c2 | B2 A3 GFE | D4 z2 G2 | A2 B2 cBcd | e2 d3 c c2- | c2 B2 c4- | c8- | %27
w: gre- di- * * *|* * * * * tur|_ _ _ _ _|* qua-|si au- ro- * * *||* * ra|_|
 c4 G4 | A6 G2 | A2 B2 c2 B2- | BA A4 G2 | A4 z4 | z4 d4 | c4 B2 c2- | c2 BA G2 A2 | E3 F G2 A2- | %36
w: * con-|sur- *|||gens,|pul-|chra ut Lu-|||
 AG G4 F2 | G4 z2 B2- | B2 A2 B2 G2 | d4 z2 B2- | B2 A2 B2 G2 | d3 c B2 A2 | B2 G3 F D2 | %43
w: |na, e-|* lec- ta ut|Sol, e-|* lec- ta ut|Sol, _ _ _|_ _ _ _|
 E2 CD EFGA | B2 c4 B2 | c8 | z4 c4 | c6 c2 | B8 | z4 B4 | B4 c4- | c2 B2 c4- | c4 A4 | G8- | G8 | %55
w: |||ter-|ri- bi-|lis,|ut|ca- stro-|* rum a-|* ci-|es,|_|
 z4 z2 c2 | B2 d2 c2 B2 | d3 c A2 c2 | B2 A2 c3 B | G2 B2 A2 G2- | GABc de d2- | dc c4 B2 | c8 |] %63
w: ut|ca- stro- * rum|a- ci- es or-|di- * na- *|* * ta or-|* * * * * * di-|* * na- *|ta.|
V:2
 G4 G2 c2- | c2 BA B2 c2 | d6 e2- | e2 dc d2 c2- | c2 BA B2 c2 | G4 z2 g2 | e2 f4 ed | ed g4 f2 | %8
w: Quae est i-|||||sta, quae|est i- * *||
 g4 f2 e2 | g8 | c4 d4- | d4 e4 | z2 e2 d2 e2- | ec d2 e4 | d2 B2 c2 B2 | G2 g4 fe | fedc d4 | %17
w: |||* sta,|quae est i-|||||
 c8- | c8- | c8 | c8 | d8 | B4 c4- | c2 B2 A4 | G4 z4 | G4 A4- | A2 G2 A3 B | c3 d e4 | f6 e2- | %29
w: sta,|_||quae|_|pro- gre-|* * di-|tur|qua- si|_ au- ro- *|* * ra|con sur-|
 e2 d2 e4 | z2 A2 c2 G2 | d4 c2 d2- | d2 e2 f2 ed | f2 e3 dcB | A4 z2 c2- | c2 c2 B2 c2- | %36
w: * * gens,|con- sur- *|* * gens|_ pul- cha _ _|ut Lu- * * *|na, ut|_ Lu- * *|
 cB G2 A4 | G4 z2 g2- | g2 f2 g2 e2 | d4 z2 g2- | g2 f2 g2 e2 | d8 | z2 c4 B2 | c2 G2 g4- | %44
w: |na, e-|* lec- ta ut|Sol, e-|* lec- ta ut|Sol,|e- lec-|ta ut Sol,|
 g2 fe d4 | c8 | z2 e2 e2 e2 | A2 e4 dc | g4 z2 G2- | GABc d2 e2 | d2 e4 cd | ef g2 e2 f2- | %52
w: _ _ _ _||ter- ri- bi-|lis, ter- ri- bi-|lis, ut|_ _ _ _ _ ca-|stro- rum a- *||
 f2 e2 f2 d2 | e4 d2 e2- | ed c2 B2 e2- | ed c2 B2 e2- | e2 d2 e2 g2- | gfde f2 e2 | d2 f3 ecd | %59
w: * * ci- es|or- di- na-|* * * ta, or-|* di- na- ta ut|_ ca- stro- rum|_ _ _ _ a- ci-|es _ _ _ _|
 ef g2 f2 e2 | g6 fe | fedc d4 | c8 |] %63
w: _ _ _ or- di-|na- * *||ta.|
V:3
 z8 | z8 | G4 G2 c2- | c2 BA B2 c2 | d6 e2- | e2 dc B2 c2- | c2 FG AB c2- | cBAG A4 | e4 d2 c2- | %9
w: ||Quae est i-|||||* * * * sta,|quae est i-|
 c2 BA G4 | A4 G2 F2- | F2 ED C2 C2 | c4 B2 A2- | A2 GF E2 C2 | G4 C2 G2- | GFED C2 G2 | A4 G4 | %17
w: ||* * * * sta,|quae est i-|||||
 C4 c4- | c2 B2 A2 G2 | F2 ED C4 | z2 c3 B A2 | G2 F2 D4 | G4 C4 | z2 G2 A2 c2- | c2 B2 c4 | %25
w: sta, quae|_ pro- gre- *||||di- tur|qia- si au-|* * ro-|
 d4 c2 F2- | F2 E2 F3 G | A2 F2 c4 | F4 z2 c2- | c2 B2 A2 G2 | F4 E4 | DEFG A2 B2- | B2 A4 G2 | %33
w: * ra con-|* sur- * *||gens, pul-|* chra _ ut|Lu- *|||
 A4 z2 F2- | FGAB c2 F2 | A4 G2 F2 | E4 D2 c2- | c2 B2 c2 G2 | d4 z2 c2- | c2 B2 c2 G2 | d4 z4 | %41
w: na, ut|_ _ _ _ Lu- *||* na, e-|* lec- ta ut|Sol, e-|* lec- ta ut|Sol,|
 z2 G4 F2 | G2 C2 G4 | C8 | G8 | C4 z2 c2 | c2 c2 A2 c2 | cBAG A4 | E8 | G8 | G4 A4- | A2 G2 A4 | %52
w: e- lec-||ta|ut|Sol, ter-|ri- bi- lis, ter-|ri- * * * bi-|lis,|ut|ca- stro-|* rum a-|
 A4 F4 | c4 B2 c2- | cd e2 d2 c2- | cdec dB c2 | G2 B2 A2 G2- | GABc d2 A2 | B2 d2 A3 B | %59
w: ci- es|or- di- na-|||ta, or- di- na-||* ta, or- *|
 c2 G2 A2 c2- | c2 BA G2 B2 | A4 G4 | C8 |] %63
w: * di- na- *|||ta.|

